X: 24806
T: Maggie McGee's Schottische
R: barndance
M: 4/4
K: Amixolydian
|:edBd e2A2|edBc d2G2|edBd e2f2|e/f/edB A2:|
|:f/g/fef gfed|Beed Bee2|f/g/fef gfed|Beed BdA2:|

